; generated by PrusaSlicer 2.9.3 on 2025-10-05 at 17:40:07 UTC


;
;
; 

; external perimeters extrusion width = 0.45mm
; perimeters extrusion width = 0.45mm
; infill extrusion width = 0.45mm
; solid infill extrusion width = 0.45mm
; top infill extrusion width = 0.40mm
; first layer extrusion width = 0.42mm

M73 P0 R228
M73 Q0 S230
M201 X1000 Y1000 Z200 E5000 ; sets maximum accelerations, mm/sec^2
M203 X200 Y200 Z12 E120 ; sets maximum feedrates, mm / sec
M204 S1250 T1250 ; sets acceleration (S) and retract acceleration (R), mm/sec^2
M205 X8.00 Y8.00 Z0.40 E4.50 ; sets the jerk limits, mm/sec
M205 S0 T0 ; sets the minimum extruding and travel feed rate, mm/sec

; printing object stencil_plate.stl id:0 copy 0
; stop printing object stencil_plate.stl id:0 copy 0

;TYPE:Custom
M862.3 P "MK3S" ; printer model check
M862.1 P0.4 ; nozzle diameter check
M115 U3.14.1 ; tell printer latest fw version
G90 ; use absolute coordinates
M83 ; extruder relative mode
M104 S215 ; set extruder temp
M140 S60 ; set bed temp
M190 S60 ; wait for bed temp
M109 S215 ; wait for extruder temp
G28 W ; home all without mesh bed level
G80 X22.6229 Y27.6229 W204.754 H154.754 ; mesh bed levelling

G1 Z0.2 F720
G1 Y-3 F1000 ; go outside print area
G92 E0
G1 X60 E9 F1000 ; intro line
G1 X100 E12.5 F1000 ; intro line

G92 E0
M221 S95

; Don't change E values below. Excessive value can damage the printer.
M907 E430 ; set extruder motor current
G21 ; set units to millimeters
G90 ; use absolute coordinates
M83 ; use relative distances for extrusion

M900 K0.05 ; Filament gcode LA 1.5
M900 K30 ; Filament gcode LA 1.0




M107
;LAYER_CHANGE
;Z:0.2
;HEIGHT:0.2
G1 E-.8 F2100
G1 Z.6 F720
G1 X23.202 Y28.752 F10800
G1 Z.2 F720
G1 E.8 F2100
M204 S800
;TYPE:Skirt/Brim
;WIDTH:0.42
G1 F1200
G1 X24.235 Y27.949 E.04102
G1 X25 Y27.811 E.02437
G1 X225 Y27.811 E6.27086
G1 X226.248 Y28.202 E.04101
M73 P0 R227
G1 X227.051 Y29.235 E.04102
G1 X227.189 Y30 E.02437
G1 X227.189 Y180 E4.70314
G1 X226.798 Y181.248 E.04101
G1 X225.765 Y182.051 E.04102
G1 X225 Y182.189 E.02437
G1 X25 Y182.189 E6.27086
G1 X23.752 Y181.798 E.04101
G1 X22.949 Y180.765 E.04102
G1 X22.811 Y180 E.02437
G1 X22.811 Y30 E4.70314
G1 X23.184 Y28.809 E.03913
M73 Q0 S229
M204 S1000
;WIPE_START
G1 F8640
G1 X23.202 Y28.752 E-.0138
G1 X24.235 Y27.949 E-.30211
G1 X25 Y27.811 E-.17949
G1 X26.319 Y27.811 E-.3046
;WIPE_END
G1 Z.6 F720
; printing object stencil_plate.stl id:0 copy 0
G1 X191.803 Y68.966 F10800
G1 Z.2 F720
G1 E.8 F2100
M204 S800
;TYPE:Perimeter
;WIDTH:0.419999
G1 F1200
G1 X192.009 Y69.224 E.01035
G1 X192.23 Y69.701 E.01648
G1 X192.319 Y70.182 E.01534
G1 X192.307 Y70.612 E.01349
G1 X192.211 Y71.031 E.01348
G1 X192.034 Y71.423 E.01349
G1 X191.782 Y71.772 E.0135
G1 X191.467 Y72.064 E.01347
G1 X191.099 Y72.288 E.01351
G1 X190.695 Y72.434 E.01347
G1 X190.269 Y72.498 E.01351
G1 X189.839 Y72.476 E.0135
G1 X189.423 Y72.369 E.01347
G1 X189.036 Y72.182 E.01348
G1 X188.693 Y71.922 E.0135
G1 X188.409 Y71.599 E.01349
G1 X188.194 Y71.226 E.0135
G1 X188.058 Y70.819 E.01345
G1 X188.009 Y70.351 E.01475
G1 X188.077 Y69.8 E.01741
G1 X188.295 Y69.258 E.01832
G1 X188.547 Y68.909 E.0135
G1 X188.861 Y68.617 E.01344
G1 X189.23 Y68.393 E.01353
G1 X189.634 Y68.246 E.01348
G1 X190.059 Y68.183 E.01347
G1 X190.49 Y68.205 E.01353
G1 X190.906 Y68.312 E.01347
G1 X191.293 Y68.498 E.01346
G1 X191.662 Y68.79 E.01475
G1 X191.766 Y68.92 E.00522
M204 S1000
G1 X191.514 Y69.209 F10800
M204 S800
;TYPE:External perimeter
G1 F1200
G1 X191.714 Y69.459 E.01004
G1 X191.894 Y69.928 E.01575
G1 X191.942 Y70.182 E.0081
G1 X191.938 Y70.537 E.01113
G1 X191.864 Y70.884 E.01112
G1 X191.722 Y71.21 E.01115
G1 X191.519 Y71.502 E.01115
G1 X191.262 Y71.747 E.01113
G1 X190.961 Y71.937 E.01116
G1 X190.629 Y72.063 E.01113
G1 X190.279 Y72.121 E.01112
G1 X189.923 Y72.108 E.01117
G1 X189.578 Y72.026 E.01112
G1 X189.256 Y71.876 E.01114
G1 X188.97 Y71.666 E.01113
G1 X188.731 Y71.403 E.01114
G1 X188.549 Y71.098 E.01114
G1 X188.431 Y70.762 E.01117
G1 X188.383 Y70.398 E.01151
G1 X188.452 Y69.846 E.01744
G1 X188.606 Y69.47 E.01274
G1 X188.81 Y69.179 E.01114
G1 X189.066 Y68.934 E.01111
G1 X189.368 Y68.744 E.01119
G1 X189.699 Y68.618 E.0111
G1 X190.05 Y68.56 E.01115
G1 X190.406 Y68.572 E.01117
G1 X190.751 Y68.655 E.01113
G1 X191.073 Y68.805 E.01114
G1 X191.367 Y69.025 E.01151
G1 X191.477 Y69.162 E.00551
M204 S1000
;WIPE_START
G1 F8640
G1 X191.514 Y69.209 E-.01381
G1 X191.714 Y69.459 E-.07392
G1 X191.894 Y69.928 E-.116
G1 X191.942 Y70.182 E-.05969
G1 X191.938 Y70.537 E-.08198
G1 X191.864 Y70.884 E-.08192
G1 X191.722 Y71.21 E-.08211
G1 X191.519 Y71.502 E-.08212
G1 X191.262 Y71.747 E-.08199
G1 X190.961 Y71.937 E-.08219
G1 X190.782 Y72.005 E-.04427
;WIPE_END
G1 Z.6 F720
G1 X202.53 Y52.817 F10800
G1 Z.2 F720
G1 E.8 F2100
M204 S800
;TYPE:Perimeter
G1 F1200
G1 X202.82 Y52.574 E.01186
G1 X203.198 Y52.369 E.01348
G1 X203.609 Y52.243 E.01348
G1 X204.037 Y52.2 E.01349
G1 X204.465 Y52.244 E.01349
G1 X204.876 Y52.371 E.01349
G1 X205.285 Y52.605 E.01477
G1 X205.692 Y52.982 E.01739
G1 X205.974 Y53.406 E.01597
G1 X206.141 Y53.882 E.01582
G1 X206.194 Y54.309 E.01349
G1 X206.161 Y54.738 E.01349
G1 X206.044 Y55.152 E.01349
G1 X205.847 Y55.535 E.0135
G1 X205.579 Y55.871 E.01348
G1 X205.249 Y56.147 E.01349
G1 X204.808 Y56.373 E.01554
G1 X204.46 Y56.478 E.0114
G1 X203.935 Y56.513 E.0165
G1 X203.485 Y56.444 E.01427
G1 X203.193 Y56.35 E.00962
G1 X202.816 Y56.144 E.01347
G1 X202.399 Y55.763 E.01771
G1 X202.219 Y55.531 E.00921
G1 X202.012 Y55.108 E.01477
G1 X201.888 Y54.565 E.01746
G1 X201.899 Y54.024 E.01697
G1 X202.003 Y53.619 E.01311
G1 X202.222 Y53.186 E.01521
G1 X202.485 Y52.856 E.01323
M204 S1000
G1 X202.793 Y53.087 F10800
M204 S800
;TYPE:External perimeter
G1 F1200
G1 X203.008 Y52.901 E.00891
G1 X203.318 Y52.726 E.01116
G1 X203.656 Y52.617 E.01114
G1 X204.009 Y52.576 E.01114
G1 X204.363 Y52.607 E.01114
G1 X204.704 Y52.706 E.01113
G1 X205.029 Y52.881 E.01157
G1 X205.435 Y53.258 E.01737
G1 X205.65 Y53.604 E.01277
G1 X205.768 Y53.938 E.01111
G1 X205.817 Y54.29 E.01114
G1 X205.796 Y54.645 E.01115
G1 X205.704 Y54.988 E.01113
G1 X205.547 Y55.307 E.01115
G1 X205.329 Y55.588 E.01115
G1 X205.06 Y55.82 E.01114
G1 X204.688 Y56.016 E.01318
G1 X204.413 Y56.104 E.00905
G1 X203.963 Y56.137 E.01415
G1 X203.588 Y56.081 E.01189
G1 X203.365 Y56.014 E.0073
G1 X203.051 Y55.849 E.01112
G1 X202.688 Y55.52 E.01536
G1 X202.398 Y55.072 E.01673
G1 X202.256 Y54.481 E.01906
G1 X202.273 Y54.076 E.01271
G1 X202.357 Y53.749 E.01059
G1 X202.522 Y53.413 E.01174
G1 X202.739 Y53.133 E.01111
G1 X202.748 Y53.126 E.00036
M204 S1000
;WIPE_START
G1 F8640
G1 X202.793 Y53.087 E-.01375
G1 X203.008 Y52.901 E-.06564
G1 X203.318 Y52.726 E-.0822
G1 X203.656 Y52.617 E-.082
G1 X204.009 Y52.576 E-.08206
G1 X204.363 Y52.607 E-.08205
G1 X204.704 Y52.706 E-.08199
G1 X205.029 Y52.881 E-.08523
G1 X205.435 Y53.258 E-.12793
G1 X205.65 Y53.604 E-.09406
G1 X205.654 Y53.617 E-.00309
;WIPE_END
G1 Z.6 F720
G1 X191.373 Y147.503 F10800
G1 Z.2 F720
G1 E.8 F2100
M204 S800
;TYPE:Perimeter
G1 F1200
G1 X191.615 Y147.612 E.00832
G1 X192.036 Y147.909 E.01615
G1 X192.34 Y148.252 E.01437
G1 X192.555 Y148.625 E.0135
G1 X192.691 Y149.032 E.01345
G1 X192.743 Y149.47 E.01383
G1 X192.702 Y149.924 E.01429
G1 X192.573 Y150.346 E.01384
G1 X192.364 Y150.729 E.01368
G1 X192.091 Y151.054 E.01331
G1 X191.799 Y151.297 E.01191
G1 X191.381 Y151.514 E.01477
G1 X190.84 Y151.652 E.01751
G1 X190.321 Y151.656 E.01627
G1 X189.843 Y151.539 E.01543
G1 X189.423 Y151.326 E.01477
G1 X188.997 Y150.969 E.01743
G1 X188.69 Y150.553 E.01621
G1 X188.504 Y150.093 E.01556
G1 X188.43 Y149.669 E.0135
G1 X188.441 Y149.239 E.01349
G1 X188.538 Y148.82 E.01348
G1 X188.715 Y148.428 E.01349
G1 X188.966 Y148.08 E.01345
G1 X189.283 Y147.786 E.01356
G1 X189.648 Y147.564 E.01339
G1 X190.054 Y147.416 E.01355
G1 X190.479 Y147.353 E.01347
G1 X190.908 Y147.375 E.01347
G1 X191.318 Y147.479 E.01326
M204 S1000
G1 X191.235 Y147.854 F10800
M204 S800
;TYPE:External perimeter
G1 F1200
G1 X191.46 Y147.956 E.00775
G1 X191.778 Y148.184 E.01227
G1 X192.018 Y148.448 E.01119
G1 X192.2 Y148.754 E.01116
G1 X192.318 Y149.088 E.01111
G1 X192.367 Y149.451 E.01148
G1 X192.337 Y149.831 E.01195
G1 X192.233 Y150.183 E.01151
G1 X192.064 Y150.501 E.01129
G1 X191.842 Y150.771 E.01096
G1 X191.61 Y150.97 E.00958
G1 X191.288 Y151.148 E.01154
G1 X190.749 Y151.286 E.01745
G1 X190.345 Y151.279 E.01267
G1 X189.998 Y151.196 E.01119
G1 X189.665 Y151.038 E.01156
G1 X189.24 Y150.68 E.01742
G1 X189.008 Y150.347 E.01273
G1 X188.874 Y150.018 E.01114
G1 X188.807 Y149.669 E.01114
G1 X188.811 Y149.314 E.01113
G1 X188.885 Y148.966 E.01116
G1 X189.026 Y148.641 E.01111
G1 X189.229 Y148.35 E.01112
G1 X189.487 Y148.103 E.0112
G1 X189.786 Y147.915 E.01107
G1 X190.119 Y147.788 E.01117
G1 X190.47 Y147.73 E.01115
G1 X190.824 Y147.742 E.01111
G1 X191.17 Y147.825 E.01116
G1 X191.18 Y147.829 E.00034
M204 S1000
;WIPE_START
G1 F8640
G1 X191.235 Y147.854 E-.01395
G1 X191.46 Y147.956 E-.05704
G1 X191.778 Y148.184 E-.09035
G1 X192.018 Y148.448 E-.08238
G1 X192.2 Y148.754 E-.08221
G1 X192.318 Y149.088 E-.08179
G1 X192.367 Y149.451 E-.08458
G1 X192.337 Y149.831 E-.08802
G1 X192.233 Y150.183 E-.08475
G1 X192.064 Y150.501 E-.08315
G1 X191.921 Y150.674 E-.05178
;WIPE_END
G1 Z.6 F720
G1 X202.326 Y157.567 F10800
G1 Z.2 F720
G1 E.8 F2100
M204 S800
;TYPE:Perimeter
G1 F1200
G1 X202.452 Y157.394 E.00671
G1 X202.764 Y157.116 E.0131
G1 X203.109 Y156.909 E.01261
G1 X203.504 Y156.766 E.01317
G1 X203.929 Y156.703 E.01347
G1 X204.358 Y156.725 E.01347
G1 X204.776 Y156.832 E.01353
G1 X205.163 Y157.019 E.01348
G1 X205.506 Y157.279 E.0135
G1 X205.79 Y157.602 E.01349
G1 X206.005 Y157.975 E.0135
G1 X206.141 Y158.382 E.01345
G1 X206.194 Y158.809 E.01349
G1 X206.161 Y159.238 E.01349
G1 X206.044 Y159.652 E.01349
G1 X205.821 Y160.067 E.01477
G1 X205.454 Y160.483 E.01739
G1 X205.038 Y160.775 E.01594
G1 X204.565 Y160.954 E.01586
G1 X204.139 Y161.018 E.01351
G1 X203.709 Y160.996 E.0135
G1 X203.293 Y160.889 E.01347
G1 X202.906 Y160.702 E.01348
G1 X202.563 Y160.442 E.0135
G1 X202.279 Y160.119 E.01349
G1 X202.064 Y159.747 E.01347
G1 X201.928 Y159.339 E.01348
G1 X201.879 Y158.871 E.01475
G1 X201.947 Y158.319 E.01744
G1 X202.13 Y157.837 E.01617
G1 X202.291 Y157.615 E.0086
M204 S1000
G1 X202.622 Y157.79 F10800
M204 S800
;TYPE:External perimeter
G1 F1200
G1 X202.715 Y157.664 E.00491
G1 X202.969 Y157.433 E.01076
G1 X203.247 Y157.26 E.01027
G1 X203.569 Y157.138 E.0108
G1 X203.92 Y157.08 E.01115
G1 X204.274 Y157.092 E.01111
G1 X204.621 Y157.175 E.01119
G1 X204.943 Y157.325 E.01114
G1 X205.23 Y157.536 E.01117
G1 X205.468 Y157.798 E.0111
G1 X205.65 Y158.104 E.01116
G1 X205.768 Y158.438 E.01111
G1 X205.817 Y158.79 E.01114
G1 X205.796 Y159.145 E.01115
G1 X205.704 Y159.488 E.01113
G1 X205.538 Y159.818 E.01158
G1 X205.171 Y160.234 E.01739
G1 X204.831 Y160.457 E.01275
G1 X204.499 Y160.583 E.01113
G1 X204.149 Y160.641 E.01112
G1 X203.793 Y160.628 E.01117
G1 X203.448 Y160.546 E.01112
G1 X203.126 Y160.396 E.01114
G1 X202.84 Y160.186 E.01113
G1 X202.601 Y159.923 E.01114
G1 X202.419 Y159.618 E.01114
G1 X202.301 Y159.282 E.01117
G1 X202.253 Y158.918 E.01151
G1 X202.322 Y158.366 E.01744
G1 X202.507 Y157.945 E.01442
G1 X202.586 Y157.839 E.00415
M204 S1000
;WIPE_START
G1 F8640
G1 X202.622 Y157.79 E-.01404
G1 X202.715 Y157.664 E-.03616
G1 X202.969 Y157.433 E-.07928
G1 X203.247 Y157.26 E-.07561
G1 X203.569 Y157.138 E-.07951
G1 X203.92 Y157.08 E-.08215
G1 X204.274 Y157.092 E-.08179
G1 X204.621 Y157.175 E-.08238
G1 X204.943 Y157.325 E-.08202
G1 X205.23 Y157.536 E-.08225
G1 X205.468 Y157.798 E-.08173
G1 X205.519 Y157.884 E-.02308
;WIPE_END
G1 Z.6 F720
G1 X51.221 Y158.338 F10800
G1 Z.2 F720
G1 E.8 F2100
M204 S800
;WIDTH:0.41375
G1 F1200
G1 X51.23 Y159 E.02041
;WIDTH:0.39881
G1 X51.229 Y159.018 E.00053
M204 S1000
;WIPE_START
G1 F8640
G1 X51.23 Y159 E-.00416
G1 X51.221 Y158.338 E-.15287
;WIPE_END
G1 E-.64297 F2100
G1 Z.6 F720
G1 X44.27 Y149.192 F10800
G1 Z.2 F720
G1 E.8 F2100
M204 S800
;TYPE:Perimeter
;WIDTH:0.419999
G1 F1200
G1 X44.297 Y148.969 E.00704
G1 X44.477 Y148.492 E.01599
G1 X44.767 Y148.078 E.01585
G1 X45.083 Y147.786 E.01349
G1 X45.448 Y147.563 E.01341
G1 X45.854 Y147.416 E.01354
G1 X46.28 Y147.353 E.0135
G1 X46.71 Y147.375 E.0135
G1 X47.126 Y147.482 E.01347
G1 X47.513 Y147.668 E.01346
G1 X47.855 Y147.928 E.01347
G1 X48.14 Y148.252 E.01353
G1 X48.355 Y148.625 E.0135
G1 X48.491 Y149.032 E.01345
G1 X48.544 Y149.459 E.01349
G1 X48.511 Y149.888 E.01349
G1 X48.394 Y150.302 E.01349
G1 X48.171 Y150.717 E.01477
G1 X47.804 Y151.133 E.01739
G1 X47.319 Y151.458 E.01831
G1 X46.871 Y151.612 E.01485
G1 X46.441 Y151.667 E.01359
G1 X46.007 Y151.634 E.01365
G1 X45.588 Y151.515 E.01366
G1 X45.191 Y151.306 E.01407
G1 X44.831 Y151.004 E.01473
G1 X44.629 Y150.769 E.00972
G1 X44.414 Y150.397 E.01347
G1 X44.278 Y149.989 E.01348
G1 X44.229 Y149.521 E.01475
G1 X44.262 Y149.251 E.00853
M204 S1000
G1 X44.643 Y149.248 F10800
M204 S800
;TYPE:External perimeter
G1 F1200
G1 X44.672 Y149.016 E.00733
G1 X44.826 Y148.641 E.01271
G1 X45.03 Y148.348 E.01119
G1 X45.287 Y148.103 E.01113
G1 X45.586 Y147.914 E.01109
G1 X45.919 Y147.788 E.01116
G1 X46.27 Y147.73 E.01115
G1 X46.626 Y147.742 E.01117
G1 X46.971 Y147.825 E.01113
G1 X47.293 Y147.975 E.01114
G1 X47.578 Y148.184 E.01108
G1 X47.818 Y148.448 E.01119
G1 X48 Y148.754 E.01116
G1 X48.118 Y149.088 E.01111
G1 X48.167 Y149.44 E.01114
G1 X48.146 Y149.795 E.01115
G1 X48.054 Y150.138 E.01113
G1 X47.888 Y150.468 E.01158
G1 X47.521 Y150.884 E.01739
G1 X47.181 Y151.107 E.01275
G1 X46.805 Y151.241 E.01252
G1 X46.45 Y151.29 E.01124
G1 X46.091 Y151.266 E.01128
G1 X45.743 Y151.171 E.01131
G1 X45.411 Y151 E.01171
G1 X45.108 Y150.747 E.01238
G1 X44.951 Y150.573 E.00735
G1 X44.769 Y150.268 E.01114
G1 X44.651 Y149.932 E.01117
G1 X44.603 Y149.568 E.01151
G1 X44.635 Y149.307 E.00824
M204 S1000
;WIPE_START
G1 F8640
G1 X44.643 Y149.248 E-.01375
G1 X44.672 Y149.016 E-.05399
G1 X44.826 Y148.641 E-.09361
G1 X45.03 Y148.348 E-.08244
G1 X45.287 Y148.103 E-.08199
G1 X45.586 Y147.914 E-.08168
G1 X45.919 Y147.788 E-.08221
G1 X46.27 Y147.73 E-.08215
G1 X46.626 Y147.742 E-.08225
G1 X46.971 Y147.825 E-.08193
G1 X47.222 Y147.942 E-.064
;WIPE_END
G1 Z.6 F720
G1 X187.116 Y52.957 F10800
G1 Z.2 F720
G1 E.8 F2100
M204 S800
;TYPE:Perimeter
G1 F1200
G1 X187.205 Y53.037 E.00375
G1 X187.296 Y53.304 E.00884
G1 X187.298 Y71.958 E.58488
G1 X204.9 Y85.315 E.69281
G1 X205.067 Y85.519 E.00827
G1 X205.123 Y85.766 E.00794
G1 X205.123 Y115.655 E.93715
G1 X205.065 Y115.906 E.00808
G1 X204.863 Y116.131 E.00948
G1 X133.37 Y162.038 E2.66395
G1 X133.111 Y162.125 E.00857
G1 X51.211 Y162.105 E2.56791
G1 X50.969 Y162.051 E.00777
G1 X50.764 Y161.886 E.00825
G1 X50.661 Y161.673 E.00742
G1 X50.666 Y161.012 E.02073
G1 X50.721 Y160.495 E.0163
G1 X50.321 Y160.732 E.01458
G1 X49.759 Y160.865 E.01811
G1 X49.237 Y160.821 E.01642
G1 X48.693 Y160.625 E.01813
G1 X48.267 Y160.343 E.01602
G1 X47.929 Y159.969 E.01581
G1 X47.714 Y159.597 E.01347
G1 X47.578 Y159.189 E.01348
G1 X47.531 Y158.641 E.01725
G1 X47.577 Y158.255 E.01219
G1 X47.701 Y157.863 E.01289
G1 X47.904 Y157.493 E.01323
G1 X48.177 Y157.167 E.01333
G1 X48.508 Y156.902 E.01329
G1 X48.848 Y156.719 E.01211
G1 X49.252 Y156.594 E.01326
G1 X49.594 Y156.557 E.01079
G1 X50.043 Y156.595 E.01413
G1 X50.422 Y156.733 E.01265
G1 X50.708 Y156.922 E.01075
G1 X50.653 Y156.38 E.01708
G1 X50.642 Y155.862 E.01625
G1 X50.641 Y131.618 E.76015
G1 X47.467 Y131.618 E.09952
G1 X47.2 Y131.551 E.00863
G1 X46.995 Y131.365 E.00868
G1 X46.903 Y131.094 E.00897
G1 X47.036 Y66.126 E2.03703
G1 X47.109 Y65.85 E.00895
M73 P0 R226
G1 X47.299 Y65.649 E.00867
G1 X47.529 Y65.566 E.00767
G1 X63.943 Y63.441 E.51894
G1 X146.256 Y52.786 E2.60239
G1 X186.732 Y52.782 E1.26909
G1 X186.991 Y52.844 E.00835
G1 X187.072 Y52.917 E.00342
M204 S1000
G1 X186.834 Y53.205 F10800
M204 S800
;TYPE:External perimeter
G1 F1200
G1 X186.874 Y53.224 E.00139
G1 X186.921 Y53.347 E.00413
G1 X186.921 Y72.145 E.5894
G1 X204.672 Y85.615 E.69867
G1 X204.746 Y85.751 E.00485
G1 X204.746 Y115.655 E.93762
G1 X204.66 Y115.814 E.00567
G1 X133.166 Y161.72 E2.66396
