; generated by PrusaSlicer 2.9.3 on 2025-10-05 at 17:05:53 UTC


;
;
; 

; external perimeters extrusion width = 0.45mm
; perimeters extrusion width = 0.45mm
; infill extrusion width = 0.45mm
; solid infill extrusion width = 0.45mm
; top infill extrusion width = 0.40mm
; support material extrusion width = 0.35mm
; first layer extrusion width = 0.42mm

M73 P0 R427
M73 Q0 S430
M201 X1000 Y1000 Z200 E5000 ; sets maximum accelerations, mm/sec^2
M203 X200 Y200 Z12 E120 ; sets maximum feedrates, mm / sec
M204 S1250 T1250 ; sets acceleration (S) and retract acceleration (R), mm/sec^2
M205 X8.00 Y8.00 Z0.40 E4.50 ; sets the jerk limits, mm/sec
M205 S0 T0 ; sets the minimum extruding and travel feed rate, mm/sec

; printing object base_plate.stl id:0 copy 0
; stop printing object base_plate.stl id:0 copy 0

;TYPE:Custom
M862.3 P "MK3S" ; printer model check
M862.1 P0.4 ; nozzle diameter check
M115 U3.14.1 ; tell printer latest fw version
G90 ; use absolute coordinates
M83 ; extruder relative mode
M104 S215 ; set extruder temp
M140 S60 ; set bed temp
M190 S60 ; wait for bed temp
M109 S215 ; wait for extruder temp
G28 W ; home all without mesh bed level
G80 X22.6229 Y27.6229 W204.754 H154.754 ; mesh bed levelling

G1 Z0.2 F720
G1 Y-3 F1000 ; go outside print area
G92 E0
G1 X60 E9 F1000 ; intro line
G1 X100 E12.5 F1000 ; intro line

G92 E0
M221 S95

; Don't change E values below. Excessive value can damage the printer.
M907 E430 ; set extruder motor current
G21 ; set units to millimeters
G90 ; use absolute coordinates
M83 ; use relative distances for extrusion

M900 K0.05 ; Filament gcode LA 1.5
M900 K30 ; Filament gcode LA 1.0




M107
;LAYER_CHANGE
;Z:0.2
;HEIGHT:0.2
G1 E-.8 F2100
G1 Z.6 F720
G1 X23.202 Y28.752 F10800
G1 Z.2 F720
G1 E.8 F2100
M204 S800
;TYPE:Skirt/Brim
;WIDTH:0.42
G1 F1200
G1 X24.235 Y27.949 E.04102
G1 X25 Y27.811 E.02437
G1 X225 Y27.811 E6.27086
G1 X226.248 Y28.202 E.04101
G1 X227.051 Y29.235 E.04102
G1 X227.189 Y30 E.02437
G1 X227.189 Y180 E4.70314
G1 X226.798 Y181.248 E.04101
G1 X225.765 Y182.051 E.04102
G1 X225 Y182.189 E.02437
G1 X25 Y182.189 E6.27086
G1 X23.752 Y181.798 E.04101
M73 Q0 S429
G1 X22.949 Y180.765 E.04102
G1 X22.811 Y180 E.02437
G1 X22.811 Y30 E4.70314
G1 X23.184 Y28.809 E.03913
M204 S1000
;WIPE_START
G1 F8640
G1 X23.202 Y28.752 E-.0138
G1 X24.235 Y27.949 E-.30211
G1 X25 Y27.811 E-.17949
G1 X26.319 Y27.811 E-.3046
;WIPE_END
G1 Z.6 F720
; printing object base_plate.stl id:0 copy 0
G1 X204.226 Y156.382 F10800
G1 Z.2 F720
G1 E.8 F2100
M204 S800
;TYPE:Support material
G1 F1200
G1 X205.187 Y156.652 E.0313
G1 X205.885 Y157.181 E.02746
G1 X206.405 Y158.033 E.0313
G1 X206.554 Y159.02 E.0313
G1 X206.308 Y159.988 E.03132
G1 X205.705 Y160.784 E.03131
G1 X204.84 Y161.283 E.03131
G1 X203.849 Y161.407 E.03131
G1 X202.888 Y161.137 E.0313
G1 X202.19 Y160.608 E.02746
G1 X201.67 Y159.756 E.0313
G1 X201.521 Y158.769 E.0313
G1 X201.767 Y157.801 E.03132
G1 X202.37 Y157.005 E.03131
G1 X203.235 Y156.506 E.03131
G1 X204.169 Y156.379 E.02955
M204 S1000
G1 X205.863 Y160.374 F10800
M204 S800
G1 F1200
G1 X205.863 Y157.703 E.08375
G1 X205.444 Y157.229 E.01984
G1 X205.444 Y160.56 E.10444
G1 X205.025 Y160.838 E.01577
G1 X205.025 Y156.951 E.12187
G1 X204.606 Y156.79 E.01407
G1 X204.606 Y160.999 E.13197
G1 X204.187 Y161.069 E.01332
G1 X204.187 Y156.719 E.13639
G1 X204.092 Y156.715 E.00298
G1 X203.768 Y156.731 E.01017
G1 X203.768 Y161.058 E.13567
G1 X203.349 Y160.963 E.01347
G1 X203.349 Y156.826 E.12971
G1 X202.93 Y157.017 E.01444
G1 X202.93 Y160.772 E.11774
G1 X202.511 Y160.451 E.01655
G1 X202.511 Y157.338 E.09761
G1 X202.092 Y157.912 E.02228
M73 P0 R426
G1 X202.092 Y160.212 E.07211
M204 S1000
;WIPE_START
G1 F8640
G1 X202.092 Y157.912 E-.53108
G1 X202.511 Y157.338 E-.16409
G1 X202.511 Y157.792 E-.10483
;WIPE_END
G1 Z.6 F720
G1 X190.756 Y147.09 F10800
G1 Z.2 F720
G1 E.8 F2100
M204 S800
G1 F1200
G1 X191.718 Y147.361 E.03134
G1 X192.415 Y147.889 E.02742
G1 X192.936 Y148.741 E.03131
G1 X193.085 Y149.729 E.03133
G1 X192.838 Y150.696 E.03129
G1 X192.235 Y151.492 E.03131
G1 X191.37 Y151.992 E.03133
G1 X190.38 Y152.116 E.03128
G1 X189.418 Y151.845 E.03134
G1 X188.721 Y151.317 E.02742
G1 X188.2 Y150.465 E.03131
G1 X188.051 Y149.477 E.03133
G1 X188.298 Y148.51 E.03129
G1 X188.901 Y147.714 E.03131
G1 X189.765 Y147.214 E.0313
G1 X190.7 Y147.087 E.02959
M204 S1000
G1 X192.455 Y151.002 F10800
M204 S800
G1 F1200
G1 X192.455 Y148.513 E.07804
G1 X192.036 Y147.992 E.02096
G1 X192.036 Y151.214 E.10102
G1 X191.617 Y151.513 E.01614
G1 X191.617 Y147.693 E.11977
G1 X191.198 Y147.516 E.01426
G1 X191.198 Y151.69 E.13087
G1 X190.779 Y151.772 E.01339
G1 X190.779 Y147.434 E.13601
G1 X190.514 Y147.423 E.00832
G1 X190.36 Y147.433 E.00484
G1 X190.36 Y151.773 E.13608
G1 X189.941 Y151.691 E.01339
G1 X189.941 Y147.515 E.13094
G1 X189.522 Y147.69 E.01424
G1 X189.522 Y151.516 E.11996
G1 X189.103 Y151.218 E.01612
G1 X189.103 Y147.988 E.10127
G1 X188.685 Y148.506 E.02087
G1 X188.685 Y151.008 E.07845
M204 S1000
;WIPE_START
G1 F8640
G1 X188.685 Y148.506 E-.57772
G1 X189.103 Y147.988 E-.15369
G1 X189.103 Y148.285 E-.06859
;WIPE_END
G1 Z.6 F720
G1 X190.33 Y67.772 F10800
G1 Z.2 F720
G1 E.8 F2100
M204 S800
G1 F1200
G1 X191.291 Y68.043 E.03131
G1 X191.989 Y68.571 E.02744
G1 X192.509 Y69.423 E.0313
G1 X192.658 Y70.41 E.0313
G1 X192.412 Y71.378 E.03132
G1 X191.809 Y72.174 E.03131
G1 X190.944 Y72.674 E.03133
G1 X189.953 Y72.798 E.03131
G1 X188.992 Y72.527 E.03131
G1 X188.294 Y71.999 E.02744
G1 X187.773 Y71.147 E.03131
G1 X187.625 Y70.159 E.03132
G1 X187.871 Y69.192 E.03129
G1 X188.474 Y68.396 E.03131
G1 X189.339 Y67.896 E.03133
G1 X190.273 Y67.769 E.02955
M204 S1000
G1 X192.036 Y71.674 F10800
M204 S800
G1 F1200
G1 X192.036 Y69.208 E.07732
G1 X191.617 Y68.681 E.02111
G1 X191.617 Y71.889 E.10058
G1 X191.198 Y72.191 E.01619
G1 X191.198 Y68.379 E.11952
G1 X190.779 Y68.201 E.01427
G1 X190.779 Y72.369 E.13068
G1 X190.36 Y72.454 E.01341
G1 X190.36 Y68.116 E.13601
G1 X190.087 Y68.105 E.00857
G1 X189.941 Y68.114 E.00459
G1 X189.941 Y72.455 E.13611
G1 X189.522 Y72.375 E.01337
G1 X189.522 Y68.195 E.13106
G1 X189.103 Y68.368 E.01421
G1 X189.103 Y72.202 E.12021
G1 X188.685 Y71.907 E.01604
G1 X188.685 Y68.663 E.10171
G1 X188.266 Y69.175 E.02074
G1 X188.266 Y71.7 E.07917
M204 S1000
;WIPE_START
G1 F8640
G1 X188.266 Y69.175 E-.58303
G1 X188.685 Y68.663 E-.15276
G1 X188.685 Y68.941 E-.06421
;WIPE_END
G1 Z.6 F720
G1 X204.226 Y51.908 F10800
G1 Z.2 F720
G1 E.8 F2100
M204 S800
G1 F1200
G1 X205.187 Y52.179 E.03131
G1 X205.884 Y52.707 E.02742
G1 X206.405 Y53.559 E.03131
G1 X206.554 Y54.547 E.03133
G1 X206.308 Y55.514 E.03129
G1 X205.705 Y56.31 E.03131
G1 X204.84 Y56.81 E.03133
G1 X203.849 Y56.934 E.03131
G1 X202.888 Y56.663 E.03131
G1 X202.19 Y56.135 E.02744
G1 X201.669 Y55.283 E.03131
G1 X201.521 Y54.296 E.03129
G1 X201.767 Y53.328 E.03132
G1 X202.37 Y52.532 E.03131
G1 X203.235 Y52.032 E.03133
G1 X204.169 Y51.905 E.02955
M204 S1000
G1 X205.863 Y55.9 F10800
M204 S800
G1 F1200
G1 X205.863 Y53.23 E.08372
G1 X205.444 Y52.756 E.01984
G1 X205.444 Y56.086 E.10441
G1 X205.025 Y56.365 E.01578
G1 X205.025 Y52.477 E.12191
G1 X204.606 Y52.317 E.01406
G1 X204.606 Y56.526 E.13197
G1 X204.187 Y56.596 E.01332
G1 X204.187 Y52.246 E.13639
G1 X204.092 Y52.241 E.00298
G1 X203.768 Y52.257 E.01017
G1 X203.768 Y56.585 E.1357
G1 X203.349 Y56.49 E.01347
G1 X203.349 Y52.352 E.12974
G1 X202.93 Y52.543 E.01444
G1 X202.93 Y56.299 E.11777
G1 X202.511 Y55.978 E.01655
G1 X202.511 Y52.864 E.09764
G1 X202.092 Y53.438 E.02228
G1 X202.092 Y55.739 E.07215
M204 S1000
;WIPE_START
G1 F8640
G1 X202.092 Y53.438 E-.53131
G1 X202.511 Y52.864 E-.16409
G1 X202.511 Y53.317 E-.1046
;WIPE_END
G1 Z.6 F720
G1 X46.508 Y47.843 F10800
G1 Z.2 F720
G1 E.8 F2100
M204 S800
G1 F1200
G1 X47.123 Y47.967 E.01967
G1 X47.688 Y48.239 E.01966
G1 X48.168 Y48.642 E.01965
G1 X48.534 Y49.151 E.01966
G1 X48.763 Y49.734 E.01964
G1 X48.841 Y50.357 E.01969
G1 X48.77 Y50.951 E.01876
G1 X48.563 Y51.555 E.02002
G1 X48.889 Y51.977 E.01672
G1 X49.793 Y51.948 E.02836
G1 X50.631 Y52.205 E.02748
G1 X51.329 Y52.734 E.02746
G1 X51.753 Y53.355 E.02358
G1 X51.925 Y53.826 E.01572
G1 X52 Y54.323 E.01576
G1 X51.853 Y55.307 E.0312
G1 X51.337 Y56.156 E.03115
G1 X50.533 Y56.74 E.03116
G1 X49.938 Y56.927 E.01956
G1 X49.191 Y56.952 E.02343
G1 X48.586 Y56.803 E.01954
G1 X47.934 Y56.436 E.02346
G1 X47.42 Y55.895 E.0234
G1 X47.051 Y55.106 E.02731
G1 X46.972 Y54.238 E.02733
G1 X47.242 Y53.25 E.03211
G1 X46.916 Y52.828 E.01672
G1 X46.012 Y52.857 E.02836
G1 X45.175 Y52.6 E.02745
G1 X44.564 Y52.163 E.02355
G1 X44.052 Y51.452 E.02747
G1 X43.852 Y50.858 E.01965
G1 X43.813 Y50.108 E.02355
G1 X43.952 Y49.497 E.01965
G1 X44.238 Y48.939 E.01966
G1 X44.652 Y48.468 E.01966
G1 X45.17 Y48.115 E.01965
G1 X45.759 Y47.9 E.01966
G1 X46.452 Y47.841 E.02181
M204 S1000
G1 X51.26 Y55.986 F10800
M204 S800
G1 F1200
G1 X51.26 Y53.186 E.08779
G1 X50.841 Y52.743 E.01912
G1 X50.841 Y56.155 E.10698
G1 X50.422 Y56.416 E.01548
G1 X50.422 Y52.482 E.12335
G1 X50.003 Y52.332 E.01395
G1 X50.003 Y56.566 E.13275
G1 X49.584 Y56.626 E.01327
G1 X49.584 Y52.271 E.13655
G1 X49.165 Y52.29 E.01315
G1 X49.165 Y56.605 E.13529
G1 X48.746 Y56.5 E.01354
G1 X48.746 Y52.07 E.1389
M204 S1000
G1 X48.327 Y56.495 F10800
M204 S800
G1 F1200
G1 X48.327 Y49.503 E.21923
G1 X47.991 Y48.954 E.02018
G1 X47.908 Y48.862 E.00389
G1 X47.908 Y55.956 E.22243
G1 X47.489 Y55.33 E.02362
G1 X47.489 Y48.516 E.21365
G1 X47.07 Y48.309 E.01465
G1 X47.07 Y52.473 E.13056
G1 X46.651 Y52.514 E.0132
G1 X46.651 Y48.202 E.1352
G1 X46.232 Y48.178 E.01316
G1 X46.232 Y52.534 E.13658
G1 X45.813 Y52.476 E.01326
G1 X45.813 Y48.236 E.13294
G1 X45.394 Y48.383 E.01392
G1 X45.394 Y52.329 E.12372
G1 X44.975 Y52.072 E.01541
G1 X44.975 Y48.641 E.10758
G1 X44.556 Y49.077 E.01896
G1 X44.556 Y51.907 E.08873
M204 S1000
;WIPE_START
G1 F8640
G1 X44.556 Y49.077 E-.65345
G1 X44.975 Y48.641 E-.13963
G1 X44.975 Y48.671 E-.00692
;WIPE_END
G1 Z.6 F720
G1 X46.53 Y147.036 F10800
G1 Z.2 F720
G1 E.8 F2100
M204 S800
G1 F1200
G1 X47.491 Y147.306 E.0313
G1 X48.189 Y147.834 E.02744
G1 X48.709 Y148.687 E.03132
G1 X48.858 Y149.674 E.0313
G1 X48.612 Y150.642 E.03132
G1 X48.009 Y151.438 E.03131
G1 X47.144 Y151.937 E.03131
G1 X46.153 Y152.061 E.03131
G1 X45.192 Y151.791 E.0313
G1 X44.494 Y151.262 E.02746
G1 X43.974 Y150.41 E.0313
G1 X43.825 Y149.423 E.0313
G1 X44.071 Y148.455 E.03132
G1 X44.674 Y147.659 E.03131
G1 X45.539 Y147.16 E.03131
G1 X46.473 Y147.033 E.02955
M204 S1000
G1 X48.327 Y150.804 F10800
M204 S800
G1 F1200
G1 X48.327 Y148.649 E.06757
G1 X47.908 Y148.033 E.02336
G1 X47.908 Y151.064 E.09503
G1 X47.489 Y151.402 E.01688
G1 X47.489 Y147.695 E.11623
G1 X47.07 Y147.494 E.01457
G1 X47.07 Y151.603 E.12883
G1 X46.651 Y151.706 E.01353
G1 X46.651 Y147.391 E.13529
G1 X46.232 Y147.371 E.01315
G1 X46.232 Y151.725 E.13652
G1 X45.813 Y151.663 E.01328
G1 X45.813 Y147.434 E.1326
G1 X45.394 Y147.585 E.01396
G1 X45.394 Y151.512 E.12313
G1 X44.975 Y151.247 E.01554
G1 X44.975 Y147.849 E.10654
G1 X44.556 Y148.297 E.01923
G1 X44.556 Y151.076 E.08713
M204 S1000
;WIPE_START
G1 F8640
G1 X44.556 Y148.297 E-.64168
G1 X44.975 Y147.849 E-.14164
G1 X44.975 Y147.921 E-.01668
;WIPE_END
G1 Z.6 F720
G1 X49.738 Y156.245 F10800
G1 Z.2 F720
G1 E.8 F2100
M204 S800
G1 F1200
G1 X50.699 Y156.516 E.03131
G1 X51.397 Y157.044 E.02744
G1 X51.917 Y157.896 E.0313
G1 X52.066 Y158.884 E.03133
G1 X51.82 Y159.852 E.03132
G1 X51.217 Y160.648 E.03131
G1 X50.352 Y161.147 E.03131
G1 X49.361 Y161.271 E.03131
G1 X48.513 Y161.055 E.02744
G1 X47.702 Y160.472 E.03132
G1 X47.182 Y159.62 E.0313
G1 X47.033 Y158.633 E.0313
G1 X47.279 Y157.665 E.03132
G1 X47.882 Y156.869 E.03131
G1 X48.747 Y156.37 E.03131
G1 X49.681 Y156.243 E.02955
M204 S1000
G1 X51.679 Y159.751 F10800
M204 S800
G1 F1200
G1 X51.679 Y158.293 E.04571
G1 X51.514 Y157.812 E.01594
G1 X51.26 Y157.407 E.01499
G1 X51.26 Y160.109 E.08472
G1 X50.841 Y160.514 E.01827
G1 X50.841 Y157.002 E.11012
G1 X50.422 Y156.761 E.01516
G1 X50.422 Y160.756 E.12526
G1 X50.003 Y160.89 E.01379
G1 X50.003 Y156.626 E.13369
G1 X49.584 Y156.579 E.01322
G1 X49.584 Y160.938 E.13667
G1 X49.165 Y160.904 E.01318
G1 X49.165 Y156.612 E.13457
G1 X48.959 Y156.659 E.00662
G1 X48.746 Y156.731 E.00705
G1 X48.746 Y160.785 E.12711
G1 X48.555 Y160.698 E.00658
G1 X48.327 Y160.563 E.00831
G1 X48.327 Y156.953 E.11319
G1 X47.908 Y157.324 E.01755
G1 X47.908 Y160.193 E.08996
G1 X47.489 Y159.47 E.0262
G1 X47.489 Y157.628 E.05775
M204 S1000
;WIPE_START
G1 F8640
G1 X47.489 Y159.47 E-.42532
G1 X47.908 Y160.193 E-.19295
G1 X47.908 Y159.406 E-.18173
;WIPE_END
G1 Z.6 F720
G1 X190.611 Y74.035 F10800
G1 Z.2 F720
G1 E.8 F2100
M204 S800
;TYPE:Perimeter
;WIDTH:0.419999
G1 F1200
G1 X189.915 Y74.063 E.02184
G1 X189.171 Y73.943 E.02363
G1 X188.465 Y73.678 E.02364
G1 X187.826 Y73.279 E.02362
G1 X187.279 Y72.761 E.02362
G1 X186.845 Y72.144 E.02365
G1 X186.542 Y71.454 E.02363
G1 X186.366 Y70.532 E.02943
G1 X186.395 Y69.729 E.02519
G1 X186.566 Y69.043 E.02217
G1 X186.883 Y68.36 E.02361
G1 X187.329 Y67.752 E.02364
G1 X187.887 Y67.245 E.02364
G1 X188.534 Y66.859 E.02362
G1 X189.244 Y66.608 E.02361
G1 X189.991 Y66.503 E.02365
G1 X190.743 Y66.548 E.02362
G1 X191.388 Y66.718 E.02091
G1 X192.076 Y67.039 E.0238
G1 X192.682 Y67.488 E.02365
G1 X193.186 Y68.046 E.02358
G1 X193.567 Y68.69 E.02346
G1 X193.813 Y69.393 E.02335
G1 X193.882 Y69.862 E.01486
G1 X193.923 Y70.403 E.01701
G1 X193.823 Y71.164 E.02407
G1 X193.575 Y71.876 E.02364
G1 X193.192 Y72.525 E.02363
G1 X192.688 Y73.085 E.02362
G1 X192.082 Y73.534 E.02365
G1 X191.4 Y73.854 E.02362
G1 X190.671 Y74.032 E.02353
M204 S1000
G1 X190.565 Y73.666 F10800
M204 S800
;TYPE:External perimeter
G1 F1200
G1 X189.905 Y73.686 E.0207
G1 X189.236 Y73.572 E.02128
G1 X188.603 Y73.327 E.02128
G1 X188.03 Y72.962 E.0213
G1 X187.542 Y72.491 E.02127
G1 X187.156 Y71.932 E.0213
G1 X186.889 Y71.308 E.02128
G1 X186.738 Y70.467 E.02679
G1 X186.769 Y69.779 E.02159
G1 X186.931 Y69.137 E.02076
G1 X187.223 Y68.523 E.02132
G1 X187.63 Y67.98 E.02128
G1 X188.136 Y67.528 E.02127
G1 X188.722 Y67.185 E.02129
G1 X189.364 Y66.965 E.02128
G1 X190.038 Y66.877 E.02131
G1 X190.715 Y66.924 E.02128
G1 X191.286 Y67.081 E.01857
G1 X191.904 Y67.374 E.02144
G1 X192.447 Y67.783 E.02131
G1 X192.897 Y68.288 E.02121
G1 X193.236 Y68.871 E.02115
G1 X193.452 Y69.504 E.02097
G1 X193.547 Y70.431 E.02922
G1 X193.45 Y71.108 E.02144
G1 X193.221 Y71.747 E.02128
G1 X192.87 Y72.328 E.02128
G1 X192.411 Y72.829 E.0213
G1 X191.862 Y73.228 E.02128
G1 X191.245 Y73.511 E.02128
G1 X190.624 Y73.656 E.01999
M204 S1000
;WIPE_START
G1 F8640
G1 X190.565 Y73.666 E-.01382
G1 X189.905 Y73.686 E-.15247
G1 X189.236 Y73.572 E-.1567
G1 X188.603 Y73.327 E-.15673
G1 X188.03 Y72.962 E-.15687
G1 X187.542 Y72.491 E-.1566
G1 X187.525 Y72.467 E-.00681
;WIPE_END
G1 Z.6 F720
G1 X207.25 Y56.384 F10800
G1 Z.2 F720
G1 E.8 F2100
M204 S800
;TYPE:Perimeter
G1 F1200
G1 X207.067 Y56.693 E.01126
G1 X206.584 Y57.221 E.02244
G1 X205.978 Y57.67 E.02365
G1 X205.296 Y57.99 E.02362
G1 X204.564 Y58.169 E.02363
G1 X203.811 Y58.199 E.02363
G1 X203.157 Y58.095 E.02076
G1 X202.438 Y57.845 E.02387
G1 X201.788 Y57.458 E.02372
G1 X201.23 Y56.951 E.02364
G1 X200.786 Y56.347 E.0235
G1 X200.471 Y55.67 E.02341
G1 X200.354 Y55.195 E.01534
G1 X200.262 Y54.668 E.01677
G1 X200.287 Y53.912 E.02372
G1 X200.462 Y53.18 E.0236
G1 X200.779 Y52.496 E.02364
G1 X201.225 Y51.888 E.02364
G1 X201.782 Y51.381 E.02362
G1 X202.429 Y50.995 E.02362
G1 X203.14 Y50.744 E.02364
G1 X203.887 Y50.639 E.02365
G1 X204.639 Y50.684 E.02362
G1 X205.367 Y50.878 E.02362
G1 X206.043 Y51.212 E.02364
G1 X206.639 Y51.673 E.02362
G1 X207.132 Y52.243 E.02363
G1 X207.503 Y52.899 E.02363
G1 X207.735 Y53.616 E.02363
G1 X207.819 Y54.539 E.02906
G1 X207.718 Y55.3 E.02407
G1 X207.471 Y56.012 E.02363
G1 X207.281 Y56.333 E.0117
M204 S1000
G1 X206.932 Y56.19 F10800
M204 S800
;TYPE:External perimeter
G1 F1200
G1 X206.759 Y56.475 E.01045
G1 X206.307 Y56.965 E.0209
G1 X205.758 Y57.364 E.02128
G1 X205.141 Y57.647 E.02128
G1 X204.48 Y57.801 E.02128
G1 X203.801 Y57.822 E.0213
G1 X203.222 Y57.724 E.01841
G1 X202.576 Y57.494 E.0215
G1 X201.993 Y57.141 E.02137
