; generated by PrusaSlicer 2.9.3 on 2025-10-05 at 18:07:30 UTC


;
;
; 

; external perimeters extrusion width = 0.45mm
; perimeters extrusion width = 0.45mm
; infill extrusion width = 0.45mm
; solid infill extrusion width = 0.45mm
; top infill extrusion width = 0.40mm
; first layer extrusion width = 0.42mm

M73 P0 R424
M73 Q0 S425
M201 X1000 Y1000 Z200 E5000 ; sets maximum accelerations, mm/sec^2
M203 X200 Y200 Z12 E120 ; sets maximum feedrates, mm / sec
M204 S1250 T1250 ; sets acceleration (S) and retract acceleration (R), mm/sec^2
M205 X8.00 Y8.00 Z0.40 E4.50 ; sets the jerk limits, mm/sec
M205 S0 T0 ; sets the minimum extruding and travel feed rate, mm/sec

; printing object left_hand_plate.stl id:0 copy 0
; stop printing object left_hand_plate.stl id:0 copy 0

;TYPE:Custom
M862.3 P "MK3S" ; printer model check
M862.1 P0.4 ; nozzle diameter check
M115 U3.14.1 ; tell printer latest fw version
G90 ; use absolute coordinates
M83 ; extruder relative mode
M104 S215 ; set extruder temp
M140 S60 ; set bed temp
M190 S60 ; wait for bed temp
M109 S215 ; wait for extruder temp
G28 W ; home all without mesh bed level
G80 X44.3983 Y47.2452 W161.203 H115.51 ; mesh bed levelling

G1 Z0.2 F720
G1 Y-3 F1000 ; go outside print area
G92 E0
G1 X60 E9 F1000 ; intro line
G1 X100 E12.5 F1000 ; intro line

G92 E0
M221 S100

; Don't change E values below. Excessive value can damage the printer.
M907 E430 ; set extruder motor current
G21 ; set units to millimeters
G90 ; use absolute coordinates
M83 ; use relative distances for extrusion

M900 K0.05 ; Filament gcode LA 1.5
M900 K30 ; Filament gcode LA 1.0




M107
;LAYER_CHANGE
;Z:0.2
;HEIGHT:0.2
G1 E-.8 F2100
G1 Z.6 F720
G1 X44.978 Y48.374 F10800
G1 Z.2 F720
G1 E.8 F2100
M204 S800
;TYPE:Skirt/Brim
;WIDTH:0.42
G1 F1200
G1 X46.011 Y47.572 E.041
G1 X46.775 Y47.434 E.02434
G1 X203.225 Y47.434 E4.90538
G1 X204.473 Y47.825 E.04101
G1 X205.275 Y48.858 E.041
G1 X205.413 Y49.622 E.02434
G1 X205.413 Y160.378 E3.47268
G1 X205.022 Y161.626 E.04101
G1 X203.989 Y162.428 E.041
G1 X203.225 Y162.566 E.02434
G1 X46.775 Y162.566 E4.90538
G1 X45.527 Y162.175 E.04101
G1 X44.725 Y161.142 E.041
G1 X44.587 Y160.378 E.02434
G1 X44.587 Y49.622 E3.47268
G1 X44.96 Y48.431 E.03913
M204 S1000
;WIPE_START
G1 F8640
G1 X44.978 Y48.374 E-.0138
G1 X46.011 Y47.572 E-.30197
G1 X46.775 Y47.434 E-.17926
G1 X48.096 Y47.434 E-.30497
;WIPE_END
G1 Z.6 F720
; printing object left_hand_plate.stl id:0 copy 0
G1 X194.355 Y74.725 F10800
G1 Z.2 F720
G1 E.8 F2100
M204 S800
;TYPE:Perimeter
;WIDTH:0.419999
G1 F1200
G1 X194.393 Y74.57 E.005
G1 X194.652 Y74.033 E.01869
G1 X194.967 Y73.637 E.01587
G1 X195.381 Y73.294 E.01686
G1 X195.828 Y73.057 E.01586
G1 X196.351 Y72.909 E.01704
G1 X197.001 Y72.888 E.02039
G1 X197.565 Y72.995 E.018
G1 X198.028 Y73.197 E.01584
G1 X198.442 Y73.487 E.01585
G1 X198.79 Y73.853 E.01583
G1 X199.058 Y74.281 E.01583
G1 X199.237 Y74.753 E.01583
G1 X199.318 Y75.252 E.01585
G1 X199.299 Y75.757 E.01585
G1 X199.18 Y76.247 E.01581
G1 X198.966 Y76.705 E.01585
G1 X198.666 Y77.111 E.01583
G1 X198.292 Y77.45 E.01583
G1 X197.857 Y77.708 E.01586
G1 X197.381 Y77.875 E.01582
G1 X196.88 Y77.943 E.01585
G1 X196.376 Y77.912 E.01583
G1 X195.888 Y77.781 E.01584
G1 X195.436 Y77.556 E.01583
G1 X195.037 Y77.246 E.01584
G1 X194.708 Y76.863 E.01583
G1 X194.577 Y76.642 E.00806
G1 X194.361 Y76.13 E.01742
G1 X194.255 Y75.566 E.01799
G1 X194.274 Y75.061 E.01585
G1 X194.341 Y74.783 E.00897
M204 S1000
G1 X194.717 Y74.826 F10800
M204 S800
G1 F1200
G1 X194.797 Y74.567 E.0085
G1 X194.969 Y74.237 E.01167
G1 X195.28 Y73.861 E.0153
G1 X195.616 Y73.593 E.01348
G1 X196 Y73.397 E.01352
G1 X196.456 Y73.278 E.01478
G1 X197.011 Y73.265 E.01741
G1 X197.472 Y73.36 E.01476
G1 X197.96 Y73.596 E.017
G1 X198.296 Y73.864 E.01348
G1 X198.573 Y74.194 E.01351
G1 X198.778 Y74.572 E.01348
G1 X198.904 Y74.983 E.01348
G1 X198.947 Y75.411 E.01349
G1 X198.903 Y75.839 E.01349
G1 X198.776 Y76.25 E.01349
G1 X198.57 Y76.628 E.0135
G1 X198.293 Y76.957 E.01348
G1 X197.956 Y77.225 E.0135
G1 X197.573 Y77.421 E.01349
G1 X197.159 Y77.537 E.01348
G1 X196.73 Y77.568 E.01349
G1 X196.303 Y77.514 E.01349
G1 X195.896 Y77.377 E.01346
G1 X195.523 Y77.161 E.01351
G1 X195.201 Y76.876 E.01348
G1 X194.924 Y76.495 E.01477
G1 X194.709 Y75.984 E.01738
G1 X194.626 Y75.489 E.01574
G1 X194.67 Y74.978 E.01608
G1 X194.699 Y74.884 E.00308
M204 S1000
G1 X195.077 Y74.928 F10800
M204 S800
;TYPE:External perimeter
G1 F1200
G1 X195.132 Y74.739 E.00617
G1 X195.287 Y74.441 E.01053
G1 X195.522 Y74.15 E.01173
G1 X195.797 Y73.924 E.01116
G1 X196.111 Y73.757 E.01115
G1 X196.465 Y73.655 E.01155
G1 X197.02 Y73.642 E.01741
G1 X197.414 Y73.739 E.01272
G1 X197.733 Y73.896 E.01115
G1 X198.014 Y74.114 E.01115
G1 X198.246 Y74.383 E.01114
G1 X198.42 Y74.692 E.01112
G1 X198.53 Y75.03 E.01114
G1 X198.571 Y75.383 E.01114
G1 X198.54 Y75.737 E.01114
G1 X198.44 Y76.078 E.01114
G1 X198.275 Y76.393 E.01115
G1 X198.051 Y76.668 E.01112
G1 X197.776 Y76.894 E.01116
G1 X197.462 Y77.06 E.01114
G1 X197.122 Y77.161 E.01112
G1 X196.768 Y77.193 E.01114
G1 X196.414 Y77.154 E.01117
G1 X196.076 Y77.046 E.01113
G1 X195.766 Y76.872 E.01115
G1 X195.496 Y76.641 E.01114
G1 X195.272 Y76.349 E.01154
G1 X195.056 Y75.837 E.01742
G1 X195.002 Y75.435 E.01272
G1 X195.033 Y75.08 E.01117
G1 X195.06 Y74.985 E.0031
M204 S1000
;WIPE_START
G1 F8640
G1 X195.077 Y74.928 E-.01373
G1 X195.132 Y74.739 E-.04545
G1 X195.287 Y74.441 E-.07756
G1 X195.522 Y74.15 E-.08637
G1 X195.797 Y73.924 E-.08219
G1 X196.111 Y73.757 E-.08212
G1 X196.465 Y73.655 E-.08507
G1 X197.02 Y73.642 E-.12819
G1 X197.414 Y73.739 E-.09369
G1 X197.733 Y73.896 E-.0821
G1 X197.813 Y73.958 E-.02353
;WIPE_END
G1 Z.6 F720
G1 X195.583 Y156.514 F10800
G1 Z.2 F720
G1 E.8 F2100
M204 S800
;TYPE:Perimeter
G1 F1200
G1 X195.457 Y156.416 E.005
G1 X195.128 Y156.033 E.01583
G1 X194.781 Y155.3 E.02543
G1 X194.675 Y154.736 E.01799
G1 X194.694 Y154.231 E.01585
G1 X194.813 Y153.74 E.01584
G1 X195.026 Y153.283 E.01581
G1 X195.326 Y152.876 E.01585
G1 X195.81 Y152.459 E.02003
G1 X196.308 Y152.207 E.0175
G1 X196.867 Y152.071 E.01804
G1 X197.421 Y152.058 E.01738
G1 X197.985 Y152.165 E.018
G1 X198.448 Y152.367 E.01584
G1 X198.862 Y152.657 E.01585
G1 X199.21 Y153.023 E.01583
G1 X199.478 Y153.451 E.01583
G1 X199.657 Y153.923 E.01583
G1 X199.738 Y154.422 E.01585
G1 X199.719 Y154.927 E.01585
G1 X199.6 Y155.418 E.01584
G1 X199.386 Y155.875 E.01582
G1 X199.086 Y156.281 E.01583
G1 X198.712 Y156.62 E.01583
G1 X198.277 Y156.878 E.01586
G1 X197.801 Y157.045 E.01582
G1 X197.3 Y157.113 E.01585
G1 X196.796 Y157.082 E.01583
G1 X196.308 Y156.951 E.01584
G1 X195.856 Y156.726 E.01583
G1 X195.63 Y156.55 E.00898
M204 S1000
G1 X195.824 Y156.226 F10800
M204 S800
G1 F1200
G1 X195.621 Y156.046 E.00851
G1 X195.344 Y155.665 E.01477
G1 X195.129 Y155.154 E.01738
G1 X195.046 Y154.576 E.01831
G1 X195.09 Y154.148 E.01349
G1 X195.217 Y153.737 E.01349
G1 X195.423 Y153.36 E.01347
G1 X195.7 Y153.031 E.01348
G1 X196.009 Y152.779 E.0125
G1 X196.419 Y152.567 E.01447
G1 X196.876 Y152.448 E.01481
G1 X197.431 Y152.435 E.01741
G1 X197.892 Y152.53 E.01476
G1 X198.38 Y152.766 E.017
G1 X198.716 Y153.034 E.01348
G1 X198.993 Y153.364 E.01351
G1 X199.198 Y153.742 E.01348
G1 X199.324 Y154.153 E.01348
G1 X199.367 Y154.581 E.01349
G1 X199.323 Y155.009 E.01349
G1 X199.196 Y155.42 E.01349
G1 X198.99 Y155.798 E.0135
G1 X198.713 Y156.127 E.01348
G1 X198.376 Y156.395 E.0135
G1 X197.993 Y156.591 E.01349
G1 X197.579 Y156.707 E.01348
G1 X197.15 Y156.738 E.01349
G1 X196.723 Y156.684 E.01349
G1 X196.316 Y156.547 E.01346
G1 X195.943 Y156.331 E.01351
G1 X195.869 Y156.266 E.00309
M204 S1000
G1 X196.065 Y155.939 F10800
M204 S800
;TYPE:External perimeter
G1 F1200
G1 X195.916 Y155.811 E.00616
G1 X195.692 Y155.519 E.01154
G1 X195.476 Y155.007 E.01742
G1 X195.422 Y154.605 E.01272
G1 X195.453 Y154.251 E.01114
G1 X195.552 Y153.909 E.01116
G1 X195.718 Y153.595 E.01114
G1 X195.942 Y153.32 E.01112
G1 X196.207 Y153.099 E.01082
G1 X196.531 Y152.927 E.0115
G1 X196.885 Y152.825 E.01155
G1 X197.44 Y152.812 E.01741
G1 X197.834 Y152.909 E.01272
G1 X198.153 Y153.066 E.01115
G1 X198.434 Y153.284 E.01115
G1 X198.666 Y153.553 E.01114
G1 X198.84 Y153.862 E.01112
G1 X198.95 Y154.2 E.01114
G1 X198.991 Y154.553 E.01114
G1 X198.96 Y154.907 E.01114
G1 X198.86 Y155.248 E.01114
G1 X198.695 Y155.563 E.01115
G1 X198.471 Y155.838 E.01112
G1 X198.196 Y156.064 E.01116
G1 X197.882 Y156.23 E.01114
G1 X197.542 Y156.331 E.01112
G1 X197.188 Y156.363 E.01114
G1 X196.834 Y156.324 E.01117
G1 X196.496 Y156.216 E.01113
G1 X196.186 Y156.042 E.01115
G1 X196.111 Y155.978 E.00309
M204 S1000
;WIPE_START
G1 F8640
G1 X196.065 Y155.939 E-.01393
G1 X195.916 Y155.811 E-.04536
G1 X195.692 Y155.519 E-.08498
G1 X195.476 Y155.007 E-.12831
G1 X195.422 Y154.605 E-.09366
G1 X195.453 Y154.251 E-.08205
G1 X195.552 Y153.909 E-.08221
G1 X195.718 Y153.595 E-.08201
G1 X195.942 Y153.32 E-.0819
G1 X196.207 Y153.099 E-.07968
G1 X196.306 Y153.047 E-.02591
;WIPE_END
G1 Z.6 F720
G1 X50.727 Y155.607 F10800
G1 Z.2 F720
G1 E.8 F2100
M204 S800
;TYPE:Perimeter
G1 F1200
G1 X50.581 Y155.3 E.01066
G1 X50.475 Y154.736 E.01799
G1 X50.494 Y154.231 E.01585
G1 X50.613 Y153.74 E.01584
G1 X50.826 Y153.282 E.01584
G1 X51.126 Y152.876 E.01583
G1 X51.501 Y152.537 E.01585
G1 X51.935 Y152.28 E.01581
G1 X52.412 Y152.113 E.01585
G1 X52.667 Y152.071 E.0081
G1 X53.221 Y152.058 E.01738
G1 X53.785 Y152.165 E.018
G1 X54.248 Y152.367 E.01584
G1 X54.662 Y152.657 E.01585
G1 X55.01 Y153.023 E.01583
G1 X55.278 Y153.451 E.01583
G1 X55.457 Y153.923 E.01583
G1 X55.538 Y154.422 E.01585
G1 X55.519 Y154.927 E.01585
G1 X55.4 Y155.417 E.01581
G1 X55.187 Y155.875 E.01584
G1 X54.886 Y156.281 E.01585
G1 X54.512 Y156.62 E.01583
G1 X54.077 Y156.878 E.01586
G1 X53.601 Y157.045 E.01582
G1 X53.1 Y157.113 E.01585
G1 X52.596 Y157.082 E.01583
G1 X52.108 Y156.951 E.01584
G1 X51.656 Y156.726 E.01583
G1 X51.257 Y156.416 E.01584
G1 X50.928 Y156.033 E.01583
G1 X50.752 Y155.662 E.01287
M204 S1000
G1 X51.057 Y155.458 F10800
M204 S800
G1 F1200
G1 X50.929 Y155.154 E.01034
G1 X50.849 Y154.689 E.01479
G1 X50.89 Y154.148 E.01701
G1 X51.017 Y153.737 E.01349
G1 X51.223 Y153.36 E.01347
G1 X51.5 Y153.031 E.01348
G1 X51.837 Y152.763 E.0135
G1 X52.22 Y152.567 E.01349
G1 X52.676 Y152.448 E.01478
G1 X53.231 Y152.435 E.01741
G1 X53.75 Y152.548 E.01665
G1 X54.18 Y152.766 E.01512
G1 X54.516 Y153.034 E.01348
G1 X54.793 Y153.364 E.01351
G1 X54.998 Y153.742 E.01348
G1 X55.124 Y154.153 E.01348
G1 X55.167 Y154.581 E.01349
G1 X55.123 Y155.009 E.01349
G1 X54.996 Y155.42 E.01349
G1 X54.79 Y155.798 E.0135
G1 X54.513 Y156.127 E.01348
G1 X54.176 Y156.395 E.0135
G1 X53.793 Y156.591 E.01349
G1 X53.379 Y156.707 E.01348
G1 X52.95 Y156.738 E.01349
G1 X52.523 Y156.684 E.01349
G1 X52.116 Y156.547 E.01346
G1 X51.743 Y156.331 E.01351
G1 X51.421 Y156.046 E.01348
G1 X51.144 Y155.665 E.01477
G1 X51.08 Y155.514 E.00514
M204 S1000
G1 X51.401 Y155.303 F10800
M204 S800
;TYPE:External perimeter
G1 F1200
G1 X51.276 Y155.007 E.01007
G1 X51.223 Y154.642 E.01156
G1 X51.253 Y154.251 E.0123
G1 X51.352 Y153.909 E.01116
G1 X51.518 Y153.595 E.01114
G1 X51.742 Y153.32 E.01112
G1 X52.017 Y153.094 E.01116
G1 X52.331 Y152.927 E.01115
G1 X52.685 Y152.825 E.01155
G1 X53.24 Y152.812 E.01741
G1 X53.634 Y152.909 E.01272
G1 X53.953 Y153.066 E.01115
G1 X54.234 Y153.284 E.01115
G1 X54.466 Y153.553 E.01114
G1 X54.64 Y153.862 E.01112
G1 X54.75 Y154.2 E.01114
G1 X54.791 Y154.553 E.01114
G1 X54.76 Y154.907 E.01114
G1 X54.66 Y155.248 E.01114
G1 X54.495 Y155.563 E.01115
G1 X54.271 Y155.838 E.01112
G1 X53.996 Y156.064 E.01116
G1 X53.682 Y156.23 E.01114
G1 X53.342 Y156.331 E.01112
G1 X52.988 Y156.363 E.01114
G1 X52.634 Y156.324 E.01117
G1 X52.296 Y156.216 E.01113
G1 X51.986 Y156.042 E.01115
G1 X51.716 Y155.811 E.01114
G1 X51.491 Y155.518 E.01158
G1 X51.424 Y155.359 E.00541
M204 S1000
;WIPE_START
G1 F8640
G1 X51.401 Y155.303 E-.01398
G1 X51.276 Y155.007 E-.07419
G1 X51.223 Y154.642 E-.08516
G1 X51.253 Y154.251 E-.09055
G1 X51.352 Y153.909 E-.08221
G1 X51.518 Y153.595 E-.08201
G1 X51.742 Y153.32 E-.0819
G1 X52.017 Y153.094 E-.08219
G1 X52.331 Y152.927 E-.08212
G1 X52.685 Y152.825 E-.08507
G1 X52.861 Y152.821 E-.04062
;WIPE_END
G1 Z.6 F720
G1 X52.755 Y57.892 F10800
G1 Z.2 F720
G1 E.8 F2100
M204 S800
;TYPE:Perimeter
G1 F1200
G1 X52.596 Y57.882 E.005
G1 X52.108 Y57.751 E.01584
G1 X51.656 Y57.526 E.01583
G1 X51.257 Y57.216 E.01584
G1 X50.928 Y56.833 E.01583
G1 X50.681 Y56.392 E.01585
G1 X50.486 Y55.605 E.02542
G1 X50.494 Y55.031 E.018
G1 X50.613 Y54.54 E.01584
G1 X50.826 Y54.082 E.01584
G1 X51.126 Y53.676 E.01583
G1 X51.501 Y53.337 E.01585
G1 X51.935 Y53.08 E.01581
G1 X52.412 Y52.913 E.01585
G1 X52.667 Y52.871 E.0081
G1 X53.221 Y52.858 E.01738
G1 X53.785 Y52.965 E.018
G1 X54.248 Y53.167 E.01584
G1 X54.662 Y53.457 E.01585
G1 X55.01 Y53.823 E.01583
G1 X55.278 Y54.251 E.01583
G1 X55.457 Y54.723 E.01583
G1 X55.538 Y55.222 E.01585
G1 X55.519 Y55.727 E.01585
G1 X55.4 Y56.217 E.01581
G1 X55.187 Y56.675 E.01584
G1 X54.886 Y57.081 E.01585
G1 X54.512 Y57.42 E.01583
G1 X54.077 Y57.678 E.01586
G1 X53.601 Y57.845 E.01582
G1 X53.1 Y57.913 E.01585
G1 X52.815 Y57.896 E.00895
M204 S1000
G1 X52.792 Y57.518 F10800
M204 S800
G1 F1200
G1 X52.523 Y57.484 E.0085
G1 X52.116 Y57.347 E.01346
G1 X51.743 Y57.131 E.01351
G1 X51.421 Y56.846 E.01348
G1 X51.162 Y56.503 E.01348
G1 X50.966 Y56.074 E.01479
G1 X50.856 Y55.53 E.0174
G1 X50.87 Y55.059 E.01477
G1 X51.017 Y54.537 E.017
G1 X51.223 Y54.16 E.01347
G1 X51.5 Y53.831 E.01348
G1 X51.836 Y53.563 E.01348
G1 X52.22 Y53.367 E.01352
G1 X52.676 Y53.248 E.01478
G1 X53.231 Y53.235 E.01741
G1 X53.692 Y53.33 E.01476
G1 X54.18 Y53.566 E.017
G1 X54.516 Y53.834 E.01348
G1 X54.793 Y54.164 E.01351
G1 X54.998 Y54.542 E.01348
G1 X55.124 Y54.953 E.01348
G1 X55.167 Y55.381 E.01349
G1 X55.123 Y55.809 E.01349
G1 X54.996 Y56.22 E.01349
G1 X54.79 Y56.598 E.0135
G1 X54.592 Y56.846 E.00995
G1 X54.204 Y57.178 E.01601
G1 X53.793 Y57.391 E.01451
G1 X53.379 Y57.507 E.01348
G1 X52.95 Y57.538 E.01349
G1 X52.852 Y57.526 E.0031
M204 S1000
G1 X52.83 Y57.146 F10800
M204 S800
;TYPE:External perimeter
G1 F1200
G1 X52.634 Y57.124 E.00618
G1 X52.296 Y57.016 E.01113
G1 X51.986 Y56.842 E.01115
G1 X51.716 Y56.611 E.01114
G1 X51.497 Y56.331 E.01115
G1 X51.335 Y56 E.01155
G1 X51.225 Y55.456 E.0174
G1 X51.253 Y55.051 E.01273
G1 X51.352 Y54.71 E.01113
G1 X51.518 Y54.395 E.01116
G1 X51.742 Y54.12 E.01112
G1 X52.017 Y53.894 E.01116
G1 X52.331 Y53.727 E.01115
G1 X52.685 Y53.625 E.01155
G1 X53.24 Y53.612 E.01741
G1 X53.634 Y53.709 E.01272
G1 X53.953 Y53.866 E.01115
G1 X54.234 Y54.084 E.01115
G1 X54.466 Y54.353 E.01114
G1 X54.64 Y54.662 E.01112
G1 X54.75 Y55 E.01114
G1 X54.791 Y55.353 E.01114
G1 X54.76 Y55.707 E.01114
G1 X54.66 Y56.048 E.01114
G1 X54.495 Y56.363 E.01115
G1 X54.297 Y56.611 E.00995
G1 X53.996 Y56.864 E.01233
G1 X53.682 Y57.03 E.01114
G1 X53.342 Y57.131 E.01112
G1 X52.988 Y57.163 E.01114
G1 X52.889 Y57.152 E.00312
M204 S1000
;WIPE_START
G1 F8640
G1 X52.83 Y57.146 E-.01369
G1 X52.634 Y57.124 E-.04554
G1 X52.296 Y57.016 E-.08193
G1 X51.986 Y56.842 E-.08208
G1 X51.716 Y56.611 E-.08205
G1 X51.497 Y56.331 E-.08208
G1 X51.335 Y56 E-.08509
G1 X51.225 Y55.456 E-.12815
G1 X51.253 Y55.051 E-.09374
G1 X51.352 Y54.71 E-.08199
G1 X51.4 Y54.619 E-.02366
;WIPE_END
G1 Z.6 F720
G1 X202.06 Y159.214 F10800
G1 Z.2 F720
M73 Q0 S424
G1 E.8 F2100
M204 S800
;TYPE:Perimeter
G1 F1200
G1 X47.94 Y159.214 E4.83232
G1 X47.94 Y50.786 E3.39968
M73 P0 R423
G1 X202.06 Y50.786 E4.83232
G1 X202.06 Y62.624 E.37117
G1 X202.06 Y159.154 E3.02663
M204 S1000
G1 X202.438 Y159.591 F10800
M204 S800
G1 F1200
G1 X47.562 Y159.591 E4.85602
G1 X47.562 Y50.409 E3.42332
G1 X202.438 Y50.409 E4.85602
G1 X202.438 Y62.624 E.38299
G1 X202.438 Y159.531 E3.03845
M204 S1000
G1 X202.815 Y159.968 F10800
M204 S800
;TYPE:External perimeter
G1 F1200
G1 X47.185 Y159.968 E4.87966
G1 X47.185 Y50.032 E3.44696
M73 Q0 S423
G1 X202.815 Y50.032 E4.87966
M73 P0 R422
G1 X202.815 Y62.624 E.39481
G1 X202.815 Y159.908 E3.05027
M204 S1000
;WIPE_START
G1 F8640
G1 X202.815 Y159.968 E-.01385
G1 X199.41 Y159.968 E-.78615
;WIPE_END
G1 Z.6 F720
